icons/24x24_building_add_outline.svg

<svg xmlns="http://www.w3.org/2000/svg" width="24" height="24" viewBox="0 0 24 24">
  <path fill-rule="evenodd" d="M22,14.3414114 C21.3744421,14.1203084 20.7012708,14 20,14 L20,11 L14,11 L14,20 L12,20 L12,6 L6,6 L6,12 L8,12 C9.1045695,12 10,12.8954305 10,14 L10,20 L8,20 L8,14 L4,14 L4,20 L2,20 L2,14 C2,12.8954305 2.8954305,12 4,12 L4,6 C4,4.8954305 4.8954305,4 6,4 L12,4 C13.1045695,4 14,4.8954305 14,6 L14,9 L16,9 L16,7 C16,6.44771525 16.4477153,6 17,6 C17.5522847,6 18,6.44771525 18,7 L18,9 L20,9 C21.1045695,9 22,9.8954305 22,11 L22,14.3414114 Z M21,19 L23,19 C23.5522847,19 24,19.4477153 24,20 C24,20.5522847 23.5522847,21 23,21 L21,21 L21,23 C21,23.5522847 20.5522847,24 20,24 C19.4477153,24 19,23.5522847 19,23 L19,21 L17,21 C16.4477153,21 16,20.5522847 16,20 C16,19.4477153 16.4477153,19 17,19 L19,19 L19,17 C19,16.4477153 19.4477153,16 20,16 C20.5522847,16 21,16.4477153 21,17 L21,19 Z"/>
</svg>

<svg width="24" height="24" fill="none" xmlns="http://www.w3.org/2000/svg"><path fill-rule="evenodd" clip-rule="evenodd" d="M22 14.341A5.99 5.99 0 0 0 20 14v-3h-6v9h-2V6H6v6h2a2 2 0 0 1 2 2v6H8v-6H4v6H2v-6a2 2 0 0 1 2-2V6a2 2 0 0 1 2-2h6a2 2 0 0 1 2 2v3h2V7a1 1 0 1 1 2 0v2h2a2 2 0 0 1 2 2v3.341ZM21 19h2a1 1 0 1 1 0 2h-2v2a1 1 0 1 1-2 0v-2h-2a1 1 0 1 1 0-2h2v-2a1 1 0 1 1 2 0v2Z" fill="#000"/></svg>
